X: 693
T: Zhenzhu daojuanlian
L: 1/8
M: 2/4
K: Eb
f f g e [I:setbarnb 1]| 
f4 | 
g f e f | 
e cB2 | 
e e/ e/ f e | 
c e B A | 
F4 | 
B B A B | 
c AB2 | 
e e f e | 
c e B G | 
F4 |]

@@@ Tune index: 9567
